svg/gimp-dark.svg

<svg xmlns="http://www.w3.org/2000/svg" xml:space="preserve" viewBox="0 0 512 512"><path d="M500.1 38.6c-.8-2.4-3.2-4.5-5.2-4.8h-1.6c-1.7.2-3.8 1.2-5.9 3.9-48.1 72.2-118.2 104.6-169.3 117.8 38.8 2.9 69.3 36 69.3 76.3 0 42.3-33.6 76.5-75 76.5-34.2 0-63-23.4-72-55.4-7.8 24.9-28.9 42.7-53.8 42.7-31.5 0-57.1-28.6-57.1-64 0-35.3 25.6-64 57.1-64 24.9 0 46 17.9 53.8 42.8 6-21.1 20.6-38.4 39.6-47.7-40.1 5.2-61.4-.6-92.2-13.9-21.9-11.9-36.8-25-52.9-50.3-.8-1.2-2.3-1.8-3.4-.5-3.7 5-20.5 122-20.8 132.7-.7 34.8-15.1 76.7-58.3 78.1 39.8 81 126.3 116.6 225.9 115.1 59.3.4 162.2-28.3 208.7-123.2 46.6-94.8 14-259.7 13.1-262.1m-93.5 303.7c-1.7.8-5.6-1.1-9.4-3.3-34.7 44.7-84.4 61.3-141.7 58.9-47.3-1.9-39.4-15.6-29-14.2 76.3 10.8 124.2-13.3 156.1-54.4-3.6-2.4-8.1-5.4-11.8-8-3.5-2.4.7-6.2 8.2-6.5 4.5-.2 10.2 1 16.3 4.4 16 9.3 16.6 20.7 11.3 23.1m-370-166.5c-26.3 5.5-41.9 37.4-34.9 71.3s34 57 60.3 51.5 41.9-37.4 34.9-71.3-34-56.9-60.3-51.5m6.7 56.1c-14.6 0-26.5-11.8-26.5-26.5 0-14.6 11.8-26.5 26.5-26.5s26.5 11.8 26.5 26.5c0 14.6-11.8 26.5-26.5 26.5m287.3 53.5c25.6 0 46.4-22.8 46.4-50.9s-20.8-50.9-46.4-50.9-46.4 22.8-46.4 50.9 20.8 50.9 46.4 50.9m0-98.5c11 0 19.9 8.9 19.9 19.9s-8.9 19.9-19.9 19.9-19.9-8.9-19.9-19.9 8.9-19.9 19.9-19.9m-97.2 47c0-23.1-15.4-41.8-34.4-41.8s-34.4 18.7-34.4 41.8 15.4 41.8 34.4 41.8 34.4-18.7 34.4-41.8m-34.3-7.4c-8.6 0-15.7-7-15.7-15.7 0-8.6 7-15.7 15.7-15.7 8.6 0 15.7 7 15.7 15.7s-7 15.7-15.7 15.7"/></svg>

<?xml version="1.0" encoding="utf-8"?>
<!-- Generator: Adobe Illustrator 28.2.0, SVG Export Plug-In . SVG Version: 6.00 Build 0)  -->
<svg version="1.1" id="Layer_1" xmlns="http://www.w3.org/2000/svg" xmlns:xlink="http://www.w3.org/1999/xlink" x="0px" y="0px"
	 viewBox="0 0 512 512" style="enable-background:new 0 0 512 512;" xml:space="preserve">
<path d="M500.1,38.6c-0.8-2.4-3.2-4.5-5.2-4.8c-0.5,0-1,0-1.6,0l0,0c-1.7,0.2-3.8,1.2-5.9,3.9c-48.1,72.2-118.2,104.6-169.3,117.8
	c38.8,2.9,69.3,36,69.3,76.3c0,42.3-33.6,76.5-75,76.5c-34.2,0-63-23.4-72-55.4c-7.8,24.9-28.9,42.7-53.8,42.7
	c-31.5,0-57.1-28.6-57.1-64c0-35.3,25.6-64,57.1-64c24.9,0,46,17.9,53.8,42.8c6-21.1,20.6-38.4,39.6-47.7
	c-40.1,5.2-61.4-0.6-92.2-13.9c-21.9-11.9-36.8-25-52.9-50.3c-0.8-1.2-2.3-1.8-3.4-0.5C127.8,103,111,220,110.7,230.7
	c-0.7,34.8-15.1,76.7-58.3,78.1c39.8,81,126.3,116.6,225.9,115.1c59.3,0.4,162.2-28.3,208.7-123.2C533.6,205.9,501,41,500.1,38.6z
	 M406.6,342.3c-1.7,0.8-5.6-1.1-9.4-3.3c-34.7,44.7-84.4,61.3-141.7,58.9c-47.3-1.9-39.4-15.6-29-14.2
	c76.3,10.8,124.2-13.3,156.1-54.4c-3.6-2.4-8.1-5.4-11.8-8c-3.5-2.4,0.7-6.2,8.2-6.5c4.5-0.2,10.2,1,16.3,4.4
	C411.3,328.5,411.9,339.9,406.6,342.3z M36.6,175.8c-26.3,5.5-41.9,37.4-34.9,71.3c7,33.9,34,57,60.3,51.5
	c26.3-5.5,41.9-37.4,34.9-71.3C89.9,193.4,62.9,170.4,36.6,175.8z M43.3,231.9c-14.6,0-26.5-11.8-26.5-26.5
	c0-14.6,11.8-26.5,26.5-26.5s26.5,11.8,26.5,26.5C69.8,220,58,231.9,43.3,231.9z M330.6,285.4c25.6,0,46.4-22.8,46.4-50.9
	c0-28.1-20.8-50.9-46.4-50.9c-25.6,0-46.4,22.8-46.4,50.9C284.2,262.6,305,285.4,330.6,285.4z M330.6,186.9c11,0,19.9,8.9,19.9,19.9
	c0,11-8.9,19.9-19.9,19.9c-11,0-19.9-8.9-19.9-19.9C310.7,195.8,319.6,186.9,330.6,186.9z M233.4,233.9c0-23.1-15.4-41.8-34.4-41.8
	c-19,0-34.4,18.7-34.4,41.8c0,23.1,15.4,41.8,34.4,41.8C218,275.7,233.4,257,233.4,233.9z M199.1,226.5c-8.6,0-15.7-7-15.7-15.7
	c0-8.6,7-15.7,15.7-15.7c8.6,0,15.7,7,15.7,15.7C214.8,219.5,207.8,226.5,199.1,226.5z"/>
</svg>
